;START_OF_HEADER
;HEADER_VERSION:0.1
;FLAVOR:Griffin
;GENERATOR.NAME:Cura_SteamEngine
;GENERATOR.VERSION:4.4.1
;GENERATOR.BUILD_DATE:2020-02-09
;TARGET_MACHINE.NAME:Ultimaker 3 Extended
;EXTRUDER_TRAIN.0.INITIAL_TEMPERATURE:210
;EXTRUDER_TRAIN.0.MATERIAL.VOLUME_USED:11723
;EXTRUDER_TRAIN.0.MATERIAL.GUID:506c9f0d-e3aa-4bd4-b2d2-23e2425b1aa9
;EXTRUDER_TRAIN.0.NOZZLE.DIAMETER:0.4
;EXTRUDER_TRAIN.0.NOZZLE.NAME:AA 0.4
;BUILD_PLATE.TYPE:glass
;BUILD_PLATE.INITIAL_TEMPERATURE:60
;PRINT.TIME:4743
;PRINT.GROUPS:1
;PRINT.SIZE.MIN.X:9
;PRINT.SIZE.MIN.Y:6
;PRINT.SIZE.MIN.Z:0.27
;PRINT.SIZE.MAX.X:148.83
;PRINT.SIZE.MAX.Y:150.93
;PRINT.SIZE.MAX.Z:17.87
;END_OF_HEADER
;Generated with Cura_SteamEngine 4.4.1
T0
M82 ;absolute extrusion mode

G92 E0
M109 S210
G0 F15000 X9 Y6 Z2
G280
G1 F1500 E-6.5
;LAYER_COUNT:89
;LAYER:0
M107
M204 S625
M205 X6 Y6
G1 F600 Z2.27
G0 F4285.7 X92.226 Y71.393 Z2.27
M204 S500
M205 X5 Y5
;TYPE:SKIRT
G1 F600 Z0.27
G1 F1500 E0
G1 F1200 X92.532 Y71.067 E0.00795
G1 X97.467 Y66.132 E0.13201
G1 X98.021 Y65.634 E0.14525
G1 X98.625 Y65.199 E0.15848
G1 X99.272 Y64.832 E0.1717
G1 X99.678 Y64.645 E0.17965
G1 X99.754 Y64.613 E0.18112
G1 X100.454 Y64.361 E0.19434
G1 X101.178 Y64.186 E0.20758
G1 X101.916 Y64.09 E0.22081
G1 X102.443 Y64.07 E0.23019
G1 X112.356 Y64.07 E0.4064
G1 X113.099 Y64.11 E0.41963
G1 X113.834 Y64.229 E0.43286
G1 X114.552 Y64.427 E0.4461
G1 X115.244 Y64.7 E0.45932
G1 X115.903 Y65.046 E0.47255
G1 X116.521 Y65.461 E0.48579
G1 X117.256 Y66.099 E0.50309
G1 X122.3 Y71.142 E0.62988
G1 X122.797 Y71.696 E0.64311
G1 X123.232 Y72.3 E0.65634
G1 X123.6 Y72.947 E0.66957
G1 X123.896 Y73.63 E0.6828
G1 X124.118 Y74.34 E0.69603
G1 X124.261 Y75.071 E0.70927
G1 X124.33 Y76.043 E0.72659
G1 X124.33 Y89.07 E0.95816
G1 X134.057 Y89.07 E1.13106
G1 X134.8 Y89.11 E1.14429
G1 X135.535 Y89.229 E1.15752
G1 X136.253 Y89.427 E1.17076
G1 X136.746 Y89.613 E1.18013
G1 X136.822 Y89.645 E1.1816
G1 X137.492 Y89.97 E1.19483
G1 X138.122 Y90.366 E1.20806
G1 X138.707 Y90.826 E1.22129
G1 X139.033 Y91.132 E1.22924
G1 X140.968 Y93.067 E1.27788
G1 X141.466 Y93.621 E1.29112
G1 X141.901 Y94.225 E1.30435
G1 X142.268 Y94.872 E1.31758
G1 X142.455 Y95.278 E1.32552
G1 X142.487 Y95.354 E1.32699
G1 X142.739 Y96.054 E1.34021
G1 X142.914 Y96.778 E1.35345
G1 X143.01 Y97.516 E1.36668
G1 X143.03 Y98.043 E1.37606
G1 X143.03 Y107.193 E1.53871
G1 X143.255 Y107.229 E1.54276
G1 X143.973 Y107.427 E1.556
G1 X144.665 Y107.7 E1.56922
G1 X145.324 Y108.046 E1.58245
G1 X145.942 Y108.461 E1.59569
G1 X146.677 Y109.1 E1.613
G1 X146.8 Y109.223 E1.61609
G1 X147.298 Y109.777 E1.62933
G1 X147.733 Y110.381 E1.64256
G1 X148.1 Y111.028 E1.65579
G1 X148.397 Y111.71 E1.66901
G1 X148.618 Y112.421 E1.68224
G1 X148.762 Y113.151 E1.69547
G1 X148.83 Y114.123 E1.71279
G1 X148.83 Y118.877 E1.7973
G1 X148.79 Y119.62 E1.81052
G1 X148.671 Y120.355 E1.82376
G1 X148.473 Y121.073 E1.837
G1 X148.2 Y121.765 E1.85022
G1 X147.854 Y122.424 E1.86345
G1 X147.439 Y123.042 E1.87669
G1 X146.8 Y123.777 E1.894
G1 X146.677 Y123.9 E1.89709
G1 X146.123 Y124.398 E1.91033
G1 X145.519 Y124.833 E1.92356
G1 X144.872 Y125.2 E1.93679
G1 X144.19 Y125.497 E1.95001
G1 X143.479 Y125.718 E1.96325
G1 X142.749 Y125.862 E1.97647
G1 X141.777 Y125.93 E1.99379
G1 X124.33 Y125.93 E2.30393
G1 X124.33 Y138.957 E2.5355
G1 X124.29 Y139.7 E2.54872
G1 X124.171 Y140.435 E2.56196
G1 X123.973 Y141.153 E2.5752
G1 X123.787 Y141.646 E2.58457
G1 X123.755 Y141.722 E2.58603
G1 X123.43 Y142.392 E2.59927
G1 X123.034 Y143.022 E2.6125
G1 X122.574 Y143.607 E2.62572
G1 X122.268 Y143.933 E2.63367
G1 X117.333 Y148.868 E2.75773
G1 X116.779 Y149.366 E2.77098
G1 X116.175 Y149.801 E2.78421
G1 X115.528 Y150.168 E2.79743
G1 X115.122 Y150.355 E2.80538
G1 X115.046 Y150.387 E2.80684
G1 X114.346 Y150.639 E2.82007
G1 X113.622 Y150.814 E2.83331
G1 X112.884 Y150.91 E2.84654
G1 X112.357 Y150.93 E2.85591
G1 X102.443 Y150.93 E3.03214
G1 X101.7 Y150.89 E3.04537
G1 X100.965 Y150.771 E3.0586
G1 X100.247 Y150.573 E3.07184
G1 X99.754 Y150.387 E3.08121
G1 X99.678 Y150.355 E3.08268
G1 X99.008 Y150.03 E3.09591
G1 X98.378 Y149.634 E3.10914
G1 X97.793 Y149.174 E3.12237
G1 X97.467 Y148.868 E3.13032
G1 X92.532 Y143.933 E3.25438
G1 X92.034 Y143.379 E3.26762
G1 X91.599 Y142.775 E3.28085
G1 X91.232 Y142.128 E3.29407
G1 X91.045 Y141.722 E3.30202
G1 X91.013 Y141.646 E3.30349
G1 X90.761 Y140.946 E3.31671
G1 X90.586 Y140.222 E3.32995
G1 X90.49 Y139.484 E3.34318
G1 X90.47 Y138.957 E3.35255
G1 X90.47 Y125.888 E3.58487
G1 X89.745 Y125.771 E3.59792
G1 X89.027 Y125.573 E3.61116
G1 X88.335 Y125.3 E3.62439
G1 X87.676 Y124.954 E3.63762
G1 X87.058 Y124.539 E3.65085
G1 X86.323 Y123.9 E3.66816
G1 X86.2 Y123.777 E3.67125
G1 X85.702 Y123.223 E3.6845
G1 X85.267 Y122.619 E3.69773
G1 X84.9 Y121.972 E3.71095
G1 X84.603 Y121.29 E3.72417
G1 X84.382 Y120.579 E3.73741
G1 X84.238 Y119.849 E3.75063
G1 X84.17 Y118.877 E3.76796
G1 X84.17 Y98.08 E4.13764
G1 X84.21 Y97.337 E4.15087
G1 X84.329 Y96.602 E4.1641
G1 X84.531 Y95.872 E4.17757
G1 X84.572 Y95.75 E4.17986
G1 X84.847 Y95.059 E4.19308
G1 X85.194 Y94.4 E4.20632
G1 X85.61 Y93.783 E4.21954
G1 X86.241 Y93.058 E4.23663
G1 X88.167 Y91.132 E4.28505
G1 X88.721 Y90.634 E4.29829
G1 X89.325 Y90.199 E4.31152
G1 X89.972 Y89.832 E4.32474
G1 X90.378 Y89.645 E4.33269
G1 X90.454 Y89.613 E4.33415
G1 X90.47 Y89.607 E4.33446
G1 X90.47 Y76.043 E4.57557
G1 X90.51 Y75.3 E4.5888
G1 X90.629 Y74.565 E4.60203
G1 X90.827 Y73.847 E4.61527
G1 X91.013 Y73.354 E4.62464
G1 X91.045 Y73.278 E4.6261
G1 X91.37 Y72.608 E4.63934
G1 X91.766 Y71.978 E4.65257
G1 X92.226 Y71.393 E4.6658
M204 S625
M205 X6 Y6
G0 F4285.7 X92.829 Y71.364
M204 S500
M205 X5 Y5
G1 F1200 X97.764 Y66.429 E4.78986
G1 X98.301 Y65.948 E4.80267
G1 X98.889 Y65.529 E4.81551
G1 X99.841 Y65.032 E4.8346
G1 X99.917 Y65 E4.83606
G1 X100.596 Y64.757 E4.84888
G1 X101.298 Y64.591 E4.86171
G1 X102.014 Y64.504 E4.87453
G1 X102.443 Y64.49 E4.88216
G1 X112.356 Y64.49 E5.05837
G1 X113.076 Y64.53 E5.07119
G1 X113.788 Y64.649 E5.08402
G1 X114.482 Y64.847 E5.09685
G1 X115.149 Y65.12 E5.10966
G1 X115.783 Y65.465 E5.12249
G1 X116.374 Y65.878 E5.13531
G1 X116.959 Y66.396 E5.1492
G1 X122.003 Y71.439 E5.27599
G1 X122.484 Y71.977 E5.28882
G1 X122.903 Y72.564 E5.30164
G1 X123.254 Y73.194 E5.31446
G1 X123.533 Y73.86 E5.32729
G1 X123.737 Y74.552 E5.34012
G1 X123.863 Y75.262 E5.35293
G1 X123.91 Y76.043 E5.36684
G1 X123.91 Y89.49 E5.60588
G1 X134.057 Y89.49 E5.78625
G1 X134.777 Y89.53 E5.79907
G1 X135.489 Y89.649 E5.8119
G1 X136.183 Y89.847 E5.82473
G1 X136.583 Y90 E5.83234
G1 X136.659 Y90.032 E5.83381
G1 X137.308 Y90.349 E5.84665
G1 X137.917 Y90.735 E5.85946
G1 X138.736 Y91.429 E5.87855
G1 X140.671 Y93.364 E5.92719
G1 X141.152 Y93.901 E5.94
G1 X141.571 Y94.489 E5.95284
G1 X142.068 Y95.441 E5.97193
G1 X142.1 Y95.517 E5.97339
G1 X142.343 Y96.196 E5.98621
G1 X142.509 Y96.898 E5.99904
G1 X142.596 Y97.614 E6.01186
G1 X142.61 Y98.043 E6.01949
G1 X142.61 Y107.549 E6.18847
G1 X143.209 Y107.649 E6.19926
G1 X143.903 Y107.847 E6.21209
G1 X144.57 Y108.12 E6.2249
G1 X145.204 Y108.465 E6.23773
G1 X145.795 Y108.878 E6.25055
G1 X146.38 Y109.397 E6.26445
G1 X146.503 Y109.52 E6.26754
G1 X146.984 Y110.057 E6.28036
G1 X147.403 Y110.645 E6.29319
G1 X147.754 Y111.275 E6.30601
G1 X148.033 Y111.94 E6.31883
G1 X148.237 Y112.632 E6.33166
G1 X148.363 Y113.342 E6.34447
G1 X148.41 Y114.123 E6.35838
G1 X148.41 Y118.877 E6.44289
G1 X148.37 Y119.597 E6.45571
G1 X148.251 Y120.309 E6.46854
G1 X148.053 Y121.003 E6.48137
G1 X147.78 Y121.67 E6.49418
G1 X147.435 Y122.304 E6.50701
G1 X147.022 Y122.895 E6.51983
G1 X146.503 Y123.48 E6.53373
G1 X146.38 Y123.603 E6.53682
G1 X145.843 Y124.084 E6.54964
G1 X145.255 Y124.503 E6.56247
G1 X144.625 Y124.854 E6.57529
G1 X143.96 Y125.133 E6.58811
G1 X143.268 Y125.337 E6.60093
G1 X142.558 Y125.463 E6.61375
G1 X141.777 Y125.51 E6.62766
G1 X123.91 Y125.51 E6.94526
G1 X123.91 Y138.957 E7.1843
G1 X123.87 Y139.677 E7.19711
G1 X123.751 Y140.389 E7.20995
G1 X123.553 Y141.083 E7.22278
G1 X123.4 Y141.483 E7.23039
G1 X123.368 Y141.559 E7.23185
G1 X123.051 Y142.208 E7.24469
G1 X122.665 Y142.817 E7.25751
G1 X121.971 Y143.636 E7.27659
G1 X117.036 Y148.571 E7.40065
G1 X116.499 Y149.052 E7.41347
G1 X115.911 Y149.471 E7.4263
G1 X114.959 Y149.968 E7.44539
G1 X114.883 Y150 E7.44686
G1 X114.204 Y150.243 E7.45968
G1 X113.502 Y150.409 E7.4725
G1 X112.786 Y150.496 E7.48532
G1 X112.357 Y150.51 E7.49295
G1 X102.443 Y150.51 E7.66918
G1 X101.723 Y150.47 E7.682
G1 X101.011 Y150.351 E7.69483
G1 X100.317 Y150.153 E7.70766
G1 X99.917 Y150 E7.71528
G1 X99.841 Y149.968 E7.71674
G1 X99.192 Y149.651 E7.72958
G1 X98.583 Y149.265 E7.7424
G1 X97.764 Y148.571 E7.76148
G1 X92.829 Y143.636 E7.88554
G1 X92.348 Y143.099 E7.89836
G1 X91.929 Y142.511 E7.91119
G1 X91.432 Y141.559 E7.93028
G1 X91.4 Y141.483 E7.93175
G1 X91.157 Y140.804 E7.94457
G1 X90.991 Y140.102 E7.95739
G1 X90.904 Y139.386 E7.97021
G1 X90.89 Y138.957 E7.97784
G1 X90.89 Y125.492 E8.21719
G1 X90.503 Y125.47 E8.22408
G1 X89.791 Y125.351 E8.23692
G1 X89.097 Y125.153 E8.24975
G1 X88.43 Y124.88 E8.26256
G1 X87.796 Y124.535 E8.27539
G1 X87.205 Y124.122 E8.2882
G1 X86.62 Y123.603 E8.30211
G1 X86.497 Y123.48 E8.3052
G1 X86.016 Y122.943 E8.31801
G1 X85.597 Y122.355 E8.33085
G1 X85.246 Y121.725 E8.34367
G1 X84.967 Y121.06 E8.35649
G1 X84.763 Y120.368 E8.36931
G1 X84.637 Y119.658 E8.38213
G1 X84.59 Y118.877 E8.39604
G1 X84.59 Y98.08 E8.76572
G1 X84.63 Y97.36 E8.77854
G1 X84.749 Y96.648 E8.79137
G1 X84.929 Y96.006 E8.80323
G1 X84.97 Y95.884 E8.80551
G1 X85.237 Y95.214 E8.81833
G1 X85.577 Y94.578 E8.83115
G1 X85.985 Y93.983 E8.84398
G1 X86.538 Y93.355 E8.85885
G1 X88.464 Y91.429 E8.90727
G1 X89.001 Y90.948 E8.92009
G1 X89.589 Y90.529 E8.93292
G1 X90.541 Y90.032 E8.95201
G1 X90.617 Y90 E8.95348
G1 X90.89 Y89.902 E8.95863
G1 X90.89 Y76.043 E9.20499
G1 X90.93 Y75.323 E9.21781
G1 X91.049 Y74.611 E9.23064
G1 X91.247 Y73.917 E9.24347
G1 X91.4 Y73.517 E9.25108
G1 X91.432 Y73.441 E9.25255
G1 X91.749 Y72.792 E9.26539
G1 X92.135 Y72.183 E9.2782
G1 X92.829 Y71.364 E9.29729
M204 S625
M205 X6 Y6
G0 F4285.7 X93.126 Y71.661
M204 S500
M205 X5 Y5
G1 F1200 X98.061 Y66.726 E9.42135
G1 X98.582 Y66.261 E9.43376
G1 X99.152 Y65.86 E9.44615
G1 X100.004 Y65.419 E9.4632
G1 X100.08 Y65.387 E9.46467
G1 X100.737 Y65.154 E9.47706
G1 X101.417 Y64.997 E9.48947
G1 X102.443 Y64.91 E9.50777
G1 X112.356 Y64.91 E9.68398
G1 X113.053 Y64.95 E9.69639
G1 X113.74 Y65.069 E9.70879
G1 X114.409 Y65.267 E9.72119
G1 X115.052 Y65.539 E9.7336
G1 X115.658 Y65.883 E9.74599
G1 X116.222 Y66.295 E9.7584
G1 X116.662 Y66.693 E9.76895
G1 X121.706 Y71.736 E9.89574
G1 X122.17 Y72.257 E9.90814
G1 X122.572 Y72.828 E9.92055
G1 X122.906 Y73.44 E9.93295
G1 X123.167 Y74.087 E9.94535
G1 X123.353 Y74.759 E9.95774
G1 X123.461 Y75.449 E9.97016
G1 X123.49 Y76.043 E9.98073
G1 X123.49 Y89.91 E10.22723
G1 X134.057 Y89.91 E10.41507
G1 X134.754 Y89.95 E10.42748
G1 X135.441 Y90.069 E10.43987
G1 X136.42 Y90.387 E10.45817
G1 X136.496 Y90.419 E10.45963
G1 X137.123 Y90.726 E10.47204
G1 X137.71 Y91.103 E10.48445
G1 X138.439 Y91.726 E10.50149
G1 X140.374 Y93.661 E10.55014
G1 X140.839 Y94.182 E10.56255
G1 X141.24 Y94.752 E10.57494
G1 X141.681 Y95.604 E10.59199
G1 X141.713 Y95.68 E10.59346
G1 X141.946 Y96.337 E10.60585
G1 X142.103 Y97.017 E10.61825
G1 X142.19 Y98.043 E10.63656
G1 X142.19 Y107.934 E10.81238
G1 X142.474 Y107.95 E10.81744
G1 X143.161 Y108.069 E10.82983
G1 X143.83 Y108.267 E10.84223
G1 X144.473 Y108.539 E10.85464
G1 X145.079 Y108.883 E10.86703
G1 X145.643 Y109.295 E10.87945
G1 X146.083 Y109.694 E10.89
G1 X146.206 Y109.817 E10.8931
G1 X146.671 Y110.338 E10.90551
G1 X147.072 Y110.908 E10.9179
G1 X147.406 Y111.521 E10.93031
G1 X147.668 Y112.168 E10.94272
G1 X147.853 Y112.84 E10.95511
G1 X147.961 Y113.529 E10.9675
G1 X147.99 Y114.123 E10.97807
G1 X147.99 Y118.877 E11.06258
G1 X147.95 Y119.574 E11.07499
G1 X147.831 Y120.261 E11.08739
G1 X147.633 Y120.93 E11.09979
G1 X147.361 Y121.573 E11.1122
G1 X147.017 Y122.179 E11.12458
G1 X146.605 Y122.743 E11.137
G1 X146.206 Y123.183 E11.14756
G1 X146.083 Y123.306 E11.15065
G1 X145.562 Y123.771 E11.16306
G1 X144.992 Y124.172 E11.17545
G1 X144.379 Y124.506 E11.18786
G1 X143.732 Y124.768 E11.20027
G1 X143.06 Y124.953 E11.21266
G1 X142.371 Y125.061 E11.22506
G1 X141.777 Y125.09 E11.23563
G1 X123.49 Y125.09 E11.5607
G1 X123.49 Y138.957 E11.8072
G1 X123.45 Y139.654 E11.81961
G1 X123.331 Y140.341 E11.832
G1 X123.013 Y141.32 E11.8503
G1 X122.981 Y141.396 E11.85177
G1 X122.674 Y142.023 E11.86418
G1 X122.297 Y142.61 E11.87658
G1 X121.674 Y143.339 E11.89362
G1 X116.739 Y148.274 E12.01768
G1 X116.218 Y148.739 E12.0301
G1 X115.648 Y149.14 E12.04249
G1 X114.796 Y149.581 E12.05954
G1 X114.72 Y149.613 E12.06101
G1 X114.063 Y149.846 E12.0734
G1 X113.383 Y150.003 E12.0858
G1 X112.357 Y150.09 E12.10411
G1 X102.443 Y150.09 E12.28034
G1 X101.746 Y150.05 E12.29275
G1 X101.059 Y149.931 E12.30514
G1 X100.08 Y149.613 E12.32344
G1 X100.004 Y149.581 E12.3249
G1 X99.377 Y149.274 E12.33731
G1 X98.79 Y148.897 E12.34972
G1 X98.061 Y148.274 E12.36676
G1 X93.126 Y143.339 E12.49082
G1 X92.661 Y142.818 E12.50324
G1 X92.26 Y142.248 E12.51563
G1 X91.819 Y141.396 E12.53268
G1 X91.787 Y141.32 E12.53414
G1 X91.554 Y140.663 E12.54654
G1 X91.397 Y139.983 E12.55894
G1 X91.31 Y138.957 E12.57725
G1 X91.31 Y125.09 E12.82374
G1 X91.223 Y125.09 E12.82529
G1 X90.526 Y125.05 E12.8377
G1 X89.839 Y124.931 E12.8501
G1 X89.17 Y124.733 E12.8625
G1 X88.527 Y124.461 E12.87491
G1 X87.921 Y124.117 E12.8873
G1 X87.357 Y123.705 E12.89971
G1 X86.917 Y123.306 E12.91027
G1 X86.794 Y123.183 E12.91336
G1 X86.329 Y122.662 E12.92577
G1 X85.928 Y122.092 E12.93816
G1 X85.594 Y121.479 E12.95057
G1 X85.332 Y120.832 E12.96298
G1 X85.147 Y120.16 E12.97537
G1 X85.039 Y119.471 E12.98777
G1 X85.01 Y118.877 E12.99834
G1 X85.01 Y98.08 E13.36803
G1 X85.05 Y97.383 E13.38044
G1 X85.169 Y96.696 E13.39283
G1 X85.327 Y96.14 E13.40311
G1 X85.368 Y96.018 E13.40539
G1 X85.628 Y95.37 E13.4178
G1 X85.96 Y94.757 E13.4302
G1 X86.36 Y94.185 E13.4426
G1 X86.835 Y93.652 E13.4553
G1 X88.761 Y91.726 E13.50371
G1 X89.282 Y91.261 E13.51613
G1 X89.852 Y90.86 E13.52851
G1 X90.704 Y90.419 E13.54557
G1 X90.78 Y90.387 E13.54703
G1 X91.31 Y90.199 E13.55703
G1 X91.31 Y76.043 E13.80867
G1 X91.35 Y75.346 E13.82108
G1 X91.469 Y74.659 E13.83347
G1 X91.787 Y73.68 E13.85177
G1 X91.819 Y73.604 E13.85324
G1 X92.126 Y72.977 E13.86565
G1 X92.503 Y72.39 E13.87805
G1 X93.126 Y71.661 E13.89509
M204 S625
M205 X6 Y6
G0 F4285.7 X93.423 Y71.958
M204 S500
M205 X5 Y5
G1 F1200 X98.358 Y67.023 E14.01915
G1 X98.861 Y66.576 E14.03112
G1 X99.414 Y66.192 E14.04308
G1 X100.167 Y65.806 E14.05812
G1 X100.243 Y65.774 E14.05959
G1 X100.878 Y65.55 E14.07156
G1 X101.535 Y65.403 E14.08353
G1 X102.443 Y65.33 E14.09972
G1 X112.356 Y65.33 E14.27593
G1 X113.028 Y65.37 E14.2879
G1 X113.691 Y65.489 E14.29987
G1 X114.334 Y65.686 E14.31183
G1 X114.95 Y65.958 E14.3238
G1 X115.529 Y66.301 E14.33576
G1 X116.064 Y66.71 E14.34773
G1 X116.365 Y66.99 E14.35504
G1 X121.409 Y72.033 E14.48183
G1 X121.856 Y72.537 E14.4938
G1 X122.24 Y73.09 E14.50577
G1 X122.556 Y73.684 E14.51773
G1 X122.799 Y74.312 E14.5297
G1 X122.966 Y74.964 E14.54166
G1 X123.055 Y75.631 E14.55363
G1 X123.07 Y76.043 E14.56095
G1 X123.07 Y90.33 E14.81492
G1 X134.057 Y90.33 E15.01022
G1 X134.729 Y90.37 E15.02219
G1 X135.392 Y90.489 E15.03417
G1 X136.257 Y90.774 E15.05035
G1 X136.333 Y90.806 E15.05182
G1 X136.937 Y91.104 E15.06379
G1 X137.501 Y91.471 E15.07575
G1 X138.142 Y92.023 E15.09079
G1 X140.077 Y93.958 E15.13944
G1 X140.524 Y94.461 E15.1514
G1 X140.908 Y95.014 E15.16336
G1 X141.294 Y95.767 E15.17841
G1 X141.326 Y95.843 E15.17987
G1 X141.55 Y96.478 E15.19184
G1 X141.697 Y97.135 E15.20381
G1 X141.77 Y98.043 E15.22
G1 X141.77 Y108.33 E15.40286
G1 X141.777 Y108.33 E15.40299
G1 X142.449 Y108.37 E15.41495
G1 X143.112 Y108.489 E15.42693
G1 X143.755 Y108.686 E15.43888
G1 X144.371 Y108.958 E15.45085
G1 X144.95 Y109.301 E15.46282
G1 X145.485 Y109.71 E15.47479
G1 X145.786 Y109.991 E15.48211
G1 X145.909 Y110.114 E15.4852
G1 X146.356 Y110.617 E15.49716
G1 X146.74 Y111.17 E15.50913
G1 X147.056 Y111.765 E15.5211
G1 X147.299 Y112.392 E15.53306
